blog/2022/05-17-a-walk-in-the-graph/img/droplet-volume.svg

<svg xmlns="http://www.w3.org/2000/svg" xmlns:xlink="http://www.w3.org/1999/xlink" width="525" height="211" contentScriptType="application/ecmascript" contentStyleType="text/css" style="width:525px;height:211px;background:#00000000" preserveAspectRatio="none" version="1.1" viewBox="0 0 525 211" zoomAndPan="magnify"><g><rect id="digitalocean_droplet" width="211" height="39.789" x="7" y="91" fill="#3D176E" codeLine="23" rx="2.5" ry="2.5" style="stroke:#000d19;stroke-width:1.5"/><ellipse cx="22" cy="110.894" fill="#E98DF7" rx="11" ry="11" style="stroke:#000d19;stroke-width:1"/><path fill="#000" d="M24.9688,116.5352 Q24.3906,116.832 23.75,116.9727 Q23.1094,117.1289 22.4063,117.1289 Q19.9063,117.1289 18.5781,115.4883 Q17.2656,113.832 17.2656,110.707 Q17.2656,107.582 18.5781,105.9258 Q19.9063,104.2695 22.4063,104.2695 Q23.1094,104.2695 23.75,104.4258 Q24.4063,104.582 24.9688,104.8789 L24.9688,107.5977 Q24.3438,107.0195 23.75,106.7539 Q23.1563,106.4727 22.5313,106.4727 Q21.1875,106.4727 20.5,107.5508 Q19.8125,108.6133 19.8125,110.707 Q19.8125,112.8008 20.5,113.8789 Q21.1875,114.9414 22.5313,114.9414 Q23.1563,114.9414 23.75,114.6758 Q24.3438,114.3945 24.9688,113.8164 L24.9688,116.5352 Z"/><text x="41" y="116.78" fill="#D9B8FF" font-family="Helvetica" font-size="17" lengthAdjust="spacing" textLength="169">digitalocean_droplet</text><rect id="digitalocean_volume" width="215" height="39.789" x="290.5" y="16" fill="#3D176E" rx="2.5" ry="2.5" style="stroke:#000d19;stroke-width:1.5"/><ellipse cx="305.5" cy="35.895" fill="#E98DF7" rx="11" ry="11" style="stroke:#000d19;stroke-width:1"/><path fill="#000" d="M308.4688,41.5352 Q307.8906,41.832 307.25,41.9727 Q306.6094,42.1289 305.9063,42.1289 Q303.4063,42.1289 302.0781,40.4883 Q300.7656,38.832 300.7656,35.707 Q300.7656,32.582 302.0781,30.9258 Q303.4063,29.2695 305.9063,29.2695 Q306.6094,29.2695 307.25,29.4258 Q307.9063,29.582 308.4688,29.8789 L308.4688,32.5977 Q307.8438,32.0195 307.25,31.7539 Q306.6563,31.4727 306.0313,31.4727 Q304.6875,31.4727 304,32.5508 Q303.3125,33.6133 303.3125,35.707 Q303.3125,37.8008 304,38.8789 Q304.6875,39.9414 306.0313,39.9414 Q306.6563,39.9414 307.25,39.6758 Q307.8438,39.3945 308.4688,38.8164 L308.4688,41.5352 Z"/><text x="324.5" y="41.78" fill="#D9B8FF" font-family="Helvetica" font-size="17" lengthAdjust="spacing" textLength="173">digitalocean_volume</text><rect id="digitalocean_floating_ip" width="240" height="39.789" x="278" y="91" fill="#3D176E" rx="2.5" ry="2.5" style="stroke:#000d19;stroke-width:1.5"/><ellipse cx="293" cy="110.894" fill="#E98DF7" rx="11" ry="11" style="stroke:#000d19;stroke-width:1"/><path fill="#000" d="M295.9688,116.5352 Q295.3906,116.832 294.75,116.9727 Q294.1094,117.1289 293.4063,117.1289 Q290.9063,117.1289 289.5781,115.4883 Q288.2656,113.832 288.2656,110.707 Q288.2656,107.582 289.5781,105.9258 Q290.9063,104.2695 293.4063,104.2695 Q294.1094,104.2695 294.75,104.4258 Q295.4063,104.582 295.9688,104.8789 L295.9688,107.5977 Q295.3438,107.0195 294.75,106.7539 Q294.1563,106.4727 293.5313,106.4727 Q292.1875,106.4727 291.5,107.5508 Q290.8125,108.6133 290.8125,110.707 Q290.8125,112.8008 291.5,113.8789 Q292.1875,114.9414 293.5313,114.9414 Q294.1563,114.9414 294.75,114.6758 Q295.3438,114.3945 295.9688,113.8164 L295.9688,116.5352 Z"/><text x="312" y="116.78" fill="#D9B8FF" font-family="Helvetica" font-size="17" lengthAdjust="spacing" textLength="198">digitalocean_floating_ip</text><rect id="digitalocean_snapshot" width="227" height="39.789" x="284.5" y="166" fill="#3D176E" rx="2.5" ry="2.5" style="stroke:#000d19;stroke-width:1.5"/><ellipse cx="299.5" cy="185.894" fill="#E98DF7" rx="11" ry="11" style="stroke:#000d19;stroke-width:1"/><path fill="#000" d="M302.4688,191.5352 Q301.8906,191.832 301.25,191.9727 Q300.6094,192.1289 299.9063,192.1289 Q297.4063,192.1289 296.0781,190.4883 Q294.7656,188.832 294.7656,185.707 Q294.7656,182.582 296.0781,180.9258 Q297.4063,179.2695 299.9063,179.2695 Q300.6094,179.2695 301.25,179.4258 Q301.9063,179.582 302.4688,179.8789 L302.4688,182.5977 Q301.8438,182.0195 301.25,181.7539 Q300.6563,181.4727 300.0313,181.4727 Q298.6875,181.4727 298,182.5508 Q297.3125,183.6133 297.3125,185.707 Q297.3125,187.8008 298,188.8789 Q298.6875,189.9414 300.0313,189.9414 Q300.6563,189.9414 301.25,189.6758 Q301.8438,189.3945 302.4688,188.8164 L302.4688,191.5352 Z"/><text x="318.5" y="191.78" fill="#D9B8FF" font-family="Helvetica" font-size="17" lengthAdjust="spacing" textLength="185">digitalocean_snapshot</text><path fill="#D9B8FF" d="M51,8.5 L51,53.7656 A2.5,2.5 0 0 0 53.5,56.2656 L171.5,56.2656 A2.5,2.5 0 0 0 174,53.7656 L174,16 L164,6 L53.5,6 A2.5,2.5 0 0 0 51,8.5" style="stroke:#000d19;stroke-width:1"/><path fill="#D9B8FF" d="M164,6 L164,14.75 A1.25,1.25 0 0 0 165.25,16 L174,16 L164,6" style="stroke:#000d19;stroke-width:1"/><text x="62" y="28.067" fill="#1A83AF" font-family="Helvetica" font-size="13" font-weight="bold" lengthAdjust="spacing" text-decoration="line-through" textLength="5">-</text><text x="67" y="28.067" fill="#1A83AF" font-family="Helvetica" font-size="13" font-weight="bold" lengthAdjust="spacing" text-decoration="line-through" textLength="5">-</text><text x="72" y="28.067" fill="#1A83AF" font-family="Helvetica" font-size="13" font-weight="bold" lengthAdjust="spacing" textLength="20">----</text><text x="96" y="28.067" fill="#3D176E" font-family="Helvetica" font-size="13" lengthAdjust="spacing" textLength="58">structure</text><text x="62" y="43.2" fill="#FFAF37" font-family="Helvetica" font-size="13" font-weight="bold" lengthAdjust="spacing" text-decoration="line-through" textLength="5">-</text><text x="67" y="43.2" fill="#FFAF37" font-family="Helvetica" font-size="13" font-weight="bold" lengthAdjust="spacing" text-decoration="line-through" textLength="5">-</text><text x="72" y="43.2" fill="#FFAF37" font-family="Helvetica" font-size="13" font-weight="bold" lengthAdjust="spacing" textLength="20">----</text><text x="96" y="43.2" fill="#3D176E" font-family="Helvetica" font-size="13" lengthAdjust="spacing" textLength="27">walk</text><path id="digitalocean_droplet-to-digitalocean_volume" fill="none" d="M218.26,95.64 C264.15,84.5 315.6,69.99 351.48,57.7" codeLine="26" style="stroke:#ffaf37;stroke-width:2"/><polygon fill="#FFAF37" points="356.21 56.06 346.395 55.245 351.488 57.705 349.028 62.799 356.21 56.06" style="stroke:#ffaf37;stroke-width:2"/><path id="digitalocean_droplet-to-digitalocean_volume-1" fill="none" d="M152.62,90.99 C186.84,78.7 238.26,63.9 285.12,52.37" codeLine="29" style="stroke:#1a83af;stroke-width:2"/><polygon fill="#1A83AF" points="290.23 51.12 280.538 49.368 285.373 52.306 282.435 57.14 290.23 51.12" style="stroke:#1a83af;stroke-width:2"/><path id="digitalocean_droplet-to-digitalocean_floating_ip" fill="none" d="M218.26,123.36 C235.99,123.74 254.56,123.84 272.73,123.66" codeLine="27" style="stroke:#ffaf37;stroke-width:2"/><polygon fill="#FFAF37" points="277.85 123.6 268.805 119.703 272.85 123.657 268.896 127.703 277.85 123.6" style="stroke:#ffaf37;stroke-width:2"/><path id="digitalocean_droplet-to-digitalocean_floating_ip-1" fill="none" d="M218.26,97.92 C235.99,97.51 254.56,97.4 272.73,97.59" codeLine="30" style="stroke:#1a83af;stroke-width:2"/><polygon fill="#1A83AF" points="277.85 97.65 268.896 93.547 272.85 97.593 268.805 101.547 277.85 97.65" style="stroke:#1a83af;stroke-width:2"/><path id="digitalocean_droplet-to-digitalocean_snapshot" fill="none" d="M154.12,131 C186.91,142.51 234.78,156.29 279.36,167.46" codeLine="28" style="stroke:#ffaf37;stroke-width:2"/><polygon fill="#FFAF37" points="284.22 168.67 276.446 162.623 279.367 167.467 274.522 170.388 284.22 168.67" style="stroke:#ffaf37;stroke-width:2"/><path id="digitalocean_droplet-to-digitalocean_snapshot-1" fill="none" d="M218.26,125.63 C264.75,136.86 316.96,151.66 352.88,164.22" codeLine="31" style="stroke:#1a83af;stroke-width:2"/><polygon fill="#1A83AF" points="357.62 165.9 350.456 159.142 352.903 164.242 347.803 166.689 357.62 165.9" style="stroke:#1a83af;stroke-width:2"/></g></svg>

<svg xmlns="http://www.w3.org/2000/svg" width="525" height="211" preserveAspectRatio="none" style="width:525px;height:211px;background:#00000000"><rect width="211" height="39.789" x="7" y="91" fill="#3D176E" rx="2.5" ry="2.5" style="stroke:#000d19;stroke-width:1.5"/><circle cx="22" cy="110.894" r="11" fill="#E98DF7" style="stroke:#000d19;stroke-width:1"/><path d="M24.969 116.535q-.578.297-1.219.438-.64.156-1.344.156-2.5 0-3.828-1.64-1.312-1.657-1.312-4.782t1.312-4.781q1.328-1.657 3.828-1.657.703 0 1.344.157.656.156 1.219.453v2.719q-.625-.579-1.219-.844-.594-.281-1.219-.281-1.343 0-2.031 1.078-.688 1.062-.688 3.156 0 2.094.688 3.172.688 1.062 2.031 1.062.625 0 1.219-.265.594-.282 1.219-.86v2.72Z"/><text x="41" y="116.78" fill="#D9B8FF" font-family="Helvetica" font-size="17" textLength="169">digitalocean_droplet</text><rect width="215" height="39.789" x="290.5" y="16" fill="#3D176E" rx="2.5" ry="2.5" style="stroke:#000d19;stroke-width:1.5"/><circle cx="305.5" cy="35.895" r="11" fill="#E98DF7" style="stroke:#000d19;stroke-width:1"/><path d="M308.469 41.535q-.578.297-1.219.438-.64.156-1.344.156-2.5 0-3.828-1.64-1.312-1.657-1.312-4.782t1.312-4.781q1.328-1.656 3.828-1.656.703 0 1.344.156.656.156 1.219.453v2.719q-.625-.578-1.219-.844-.594-.281-1.219-.281-1.344 0-2.031 1.078-.688 1.062-.688 3.156 0 2.094.688 3.172.688 1.062 2.031 1.062.625 0 1.219-.265.594-.282 1.219-.86v2.72Z"/><text x="324.5" y="41.78" fill="#D9B8FF" font-family="Helvetica" font-size="17" textLength="173">digitalocean_volume</text><rect width="240" height="39.789" x="278" y="91" fill="#3D176E" rx="2.5" ry="2.5" style="stroke:#000d19;stroke-width:1.5"/><circle cx="293" cy="110.894" r="11" fill="#E98DF7" style="stroke:#000d19;stroke-width:1"/><path d="M295.969 116.535q-.578.297-1.219.438-.64.156-1.344.156-2.5 0-3.828-1.64-1.312-1.657-1.312-4.782t1.312-4.781q1.328-1.657 3.828-1.657.703 0 1.344.157.656.156 1.219.453v2.719q-.625-.579-1.219-.844-.594-.281-1.219-.281-1.344 0-2.031 1.078-.688 1.062-.688 3.156 0 2.094.688 3.172.688 1.062 2.031 1.062.625 0 1.219-.265.594-.282 1.219-.86v2.72Z"/><text x="312" y="116.78" fill="#D9B8FF" font-family="Helvetica" font-size="17" textLength="198">digitalocean_floating_ip</text><rect width="227" height="39.789" x="284.5" y="166" fill="#3D176E" rx="2.5" ry="2.5" style="stroke:#000d19;stroke-width:1.5"/><circle cx="299.5" cy="185.894" r="11" fill="#E98DF7" style="stroke:#000d19;stroke-width:1"/><path d="M302.469 191.535q-.578.297-1.219.438-.64.156-1.344.156-2.5 0-3.828-1.64-1.312-1.657-1.312-4.782t1.312-4.781q1.328-1.656 3.828-1.656.703 0 1.344.156.656.156 1.219.453v2.719q-.625-.579-1.219-.844-.594-.281-1.219-.281-1.344 0-2.031 1.078-.688 1.062-.688 3.156 0 2.094.688 3.172.688 1.062 2.031 1.062.625 0 1.219-.265.594-.281 1.219-.86v2.72Z"/><text x="318.5" y="191.78" fill="#D9B8FF" font-family="Helvetica" font-size="17" textLength="185">digitalocean_snapshot</text><path fill="#D9B8FF" d="M51 8.5v45.266a2.5 2.5 0 0 0 2.5 2.5h118a2.5 2.5 0 0 0 2.5-2.5V16L164 6H53.5A2.5 2.5 0 0 0 51 8.5" style="stroke:#000d19;stroke-width:1"/><path fill="#D9B8FF" d="M164 6v8.75a1.25 1.25 0 0 0 1.25 1.25H174L164 6" style="stroke:#000d19;stroke-width:1"/><text x="62" y="28.067" fill="#1A83AF" font-family="Helvetica" font-size="13" font-weight="bold" text-decoration="line-through" textLength="5">-</text><text x="67" y="28.067" fill="#1A83AF" font-family="Helvetica" font-size="13" font-weight="bold" text-decoration="line-through" textLength="5">-</text><text x="72" y="28.067" fill="#1A83AF" font-family="Helvetica" font-size="13" font-weight="bold" textLength="20">----</text><text x="96" y="28.067" fill="#3D176E" font-family="Helvetica" font-size="13" textLength="58">structure</text><text x="62" y="43.2" fill="#FFAF37" font-family="Helvetica" font-size="13" font-weight="bold" text-decoration="line-through" textLength="5">-</text><text x="67" y="43.2" fill="#FFAF37" font-family="Helvetica" font-size="13" font-weight="bold" text-decoration="line-through" textLength="5">-</text><text x="72" y="43.2" fill="#FFAF37" font-family="Helvetica" font-size="13" font-weight="bold" textLength="20">----</text><text x="96" y="43.2" fill="#3D176E" font-family="Helvetica" font-size="13" textLength="27">walk</text><path fill="none" d="M218.26 95.64C264.15 84.5 315.6 69.99 351.48 57.7" style="stroke:#ffaf37;stroke-width:2"/><path fill="#FFAF37" d="m356.21 56.06-9.815-.815 5.093 2.46-2.46 5.094 7.182-6.739z" style="stroke:#ffaf37;stroke-width:2"/><path fill="none" d="M152.62 90.99c34.22-12.29 85.64-27.09 132.5-38.62" style="stroke:#1a83af;stroke-width:2"/><path fill="#1A83AF" d="m290.23 51.12-9.692-1.752 4.835 2.938-2.938 4.834 7.795-6.02z" style="stroke:#1a83af;stroke-width:2"/><path fill="none" d="M218.26 123.36c17.73.38 36.3.48 54.47.3" style="stroke:#ffaf37;stroke-width:2"/><path fill="#FFAF37" d="m277.85 123.6-9.045-3.897 4.045 3.954-3.954 4.046 8.954-4.103z" style="stroke:#ffaf37;stroke-width:2"/><path fill="none" d="M218.26 97.92c17.73-.41 36.3-.52 54.47-.33" style="stroke:#1a83af;stroke-width:2"/><path fill="#1A83AF" d="m277.85 97.65-8.954-4.103 3.954 4.046-4.045 3.954 9.045-3.897z" style="stroke:#1a83af;stroke-width:2"/><path fill="none" d="M154.12 131c32.79 11.51 80.66 25.29 125.24 36.46" style="stroke:#ffaf37;stroke-width:2"/><path fill="#FFAF37" d="m284.22 168.67-7.774-6.047 2.921 4.844-4.845 2.921 9.698-1.718z" style="stroke:#ffaf37;stroke-width:2"/><path fill="none" d="M218.26 125.63c46.49 11.23 98.7 26.03 134.62 38.59" style="stroke:#1a83af;stroke-width:2"/><path fill="#1A83AF" d="m357.62 165.9-7.164-6.758 2.447 5.1-5.1 2.447 9.817-.789z" style="stroke:#1a83af;stroke-width:2"/></svg>
